X:1785
T:Rambling Rake, The
T:An Racaire Fanac
C:"collected by Hartnett"
S:1781 O'Neill's Music of Ireland
B:O'Neill's 1785
Z:Transcribed by Robert Thorpe (thorpe@skep.com)
Z:ABCMUS 1.0
M:C|
L:1/8
K:A
E2|AGAB cBcd|efeA d2 g-e|(3ddd ge (3ddd ge|dcBA G2 G2|
AGAB cBcd|efec d2 g-e|dBGB dedB|c2 A2 A2:|
d2|efec d2 g2|efec d2 g2|(3ffg af dg g2|(3ffg af d2 g-a|
bagf efga|bagf efga|baga bagf|~e-def g2 f-g|
efec d2 g2|efed c2 B-c|ABcd gfge|dcBA G2 G2|
AGAB cBcd|efec d2 g-e|dBGB dedB|c2 A2 A2|]


